X:196
T:Scotch Bonnet
M:C|
L:1/8
B:Thompson's Compleat Collection of 200 Favourite Country Dances, vol. 1 (London, 1757)
Z:Transcribed and edited by Flynn Titford-Mock, 2007
Z:abc's:AK/Fiddler's Companion
K:G
GAB>c d>Bc>B|A>Bc>d e/e/e e2|G>AB>c e>fg>e|d>Bc>A G/G/G G2:|
|:B>GA>B A>FE>D|B>GA>B E/E/E E2|B>GA>BA>FE>D|d>Bc>A G/G/G G2:|
|:g>dB>G g>DB>G|B>GA>B E/E/E E2|g>dB>G g>dB>G|d>Bc>A G/G/G G2:|

